svgs/light/starfighter.svg

<svg xmlns="http://www.w3.org/2000/svg" viewBox="0 0 640 512"><!--! Font Awesome Pro 6.6.0 by @fontawesome - https://fontawesome.com License - https://fontawesome.com/license (Commercial License) Copyright 2024 Fonticons, Inc. --><path d="M269.6 35.2L240.1 278.1l-.1 1 0 1 0 152c0 26.5 21.5 48 48 48l64 0c26.5 0 48-21.5 48-48l0-152 0-1-.1-1L370.4 35.2C368 15.1 351 0 330.7 0L309.3 0C289 0 272 15.1 269.6 35.2zM309.3 32l21.5 0c4 0 7.5 3 7.9 7L368 281l0 151c0 8.8-7.2 16-16 16l-64 0c-8.8 0-16-7.2-16-16l0-151L301.3 39c.5-4 3.9-7 7.9-7zM64 96c0-8.8-7.2-16-16-16s-16 7.2-16 16l0 32-16 0c-8.8 0-16 7.2-16 16s7.2 16 16 16l16 0 0 288c0 8.8 7.2 16 16 16s16-7.2 16-16l0-19.3 72.1 30c8.6 12.8 23.3 21.3 39.9 21.3l16 0 0 16c0 8.8 7.2 16 16 16s16-7.2 16-16l0-32c0-8.8-7.2-16-16-16l-32 0c-8.8 0-16-7.2-16-16l0-128c0-8.8 7.2-16 16-16l32 0c8.8 0 16-7.2 16-16s-7.2-16-16-16l-32 0c-26.5 0-48 21.5-48 48l0 16-64 0 0-160 16 0c8.8 0 16-7.2 16-16s-7.2-16-16-16l-16 0 0-32zm0 298l0-42 64 0 0 68.7L64 394zM608 96c0-8.8-7.2-16-16-16s-16 7.2-16 16l0 32-16 0c-8.8 0-16 7.2-16 16s7.2 16 16 16l16 0 0 160-64 0 0-16c0-26.5-21.5-48-48-48l-32 0c-8.8 0-16 7.2-16 16s7.2 16 16 16l32 0c8.8 0 16 7.2 16 16l0 128c0 8.8-7.2 16-16 16l-32 0c-8.8 0-16 7.2-16 16l0 32c0 8.8 7.2 16 16 16s16-7.2 16-16l0-16 16 0c16.6 0 31.3-8.4 39.9-21.3l72.1-30 0 19.3c0 8.8 7.2 16 16 16s16-7.2 16-16l0-288 16 0c8.8 0 16-7.2 16-16s-7.2-16-16-16l-16 0 0-32zM512 352l64 0 0 42-64 26.7 0-68.7zM320 224c-8.8 0-16 7.2-16 16l0 64c0 8.8 7.2 16 16 16s16-7.2 16-16l0-64c0-8.8-7.2-16-16-16z"/></svg>

<svg xmlns="http://www.w3.org/2000/svg" viewBox="0 0 640 512"><!--! Font Awesome Pro 6.4.2 by @fontawesome - https://fontawesome.com License - https://fontawesome.com/license (Commercial License) Copyright 2023 Fonticons, Inc. --><path d="M269.6 35.2L240.1 278.1l-.1 1v1V432c0 26.5 21.5 48 48 48h64c26.5 0 48-21.5 48-48V280v-1l-.1-1L370.4 35.2C368 15.1 351 0 330.7 0H309.3C289 0 272 15.1 269.6 35.2zM309.3 32h21.5c4 0 7.5 3 7.9 7L368 281V432c0 8.8-7.2 16-16 16H288c-8.8 0-16-7.2-16-16V281L301.3 39c.5-4 3.9-7 7.9-7zM64 96c0-8.8-7.2-16-16-16s-16 7.2-16 16v32H16c-8.8 0-16 7.2-16 16s7.2 16 16 16H32V448c0 8.8 7.2 16 16 16s16-7.2 16-16V428.7l72.1 30c8.6 12.8 23.3 21.3 39.9 21.3h16v16c0 8.8 7.2 16 16 16s16-7.2 16-16V464c0-8.8-7.2-16-16-16H176c-8.8 0-16-7.2-16-16V304c0-8.8 7.2-16 16-16h32c8.8 0 16-7.2 16-16s-7.2-16-16-16H176c-26.5 0-48 21.5-48 48v16H64V160H80c8.8 0 16-7.2 16-16s-7.2-16-16-16H64V96zm0 298V352h64v68.7L64 394zM608 96c0-8.8-7.2-16-16-16s-16 7.2-16 16v32H560c-8.8 0-16 7.2-16 16s7.2 16 16 16h16V320H512V304c0-26.5-21.5-48-48-48H432c-8.8 0-16 7.2-16 16s7.2 16 16 16h32c8.8 0 16 7.2 16 16V432c0 8.8-7.2 16-16 16H432c-8.8 0-16 7.2-16 16v32c0 8.8 7.2 16 16 16s16-7.2 16-16V480h16c16.6 0 31.3-8.4 39.9-21.3l72.1-30V448c0 8.8 7.2 16 16 16s16-7.2 16-16V160h16c8.8 0 16-7.2 16-16s-7.2-16-16-16H608V96zM512 352h64v42l-64 26.7V352zM320 224c-8.8 0-16 7.2-16 16v64c0 8.8 7.2 16 16 16s16-7.2 16-16V240c0-8.8-7.2-16-16-16z"/></svg>
